images_sukapura_svg/cmd/lc_beziermove.svg

<svg viewBox="0 0 24 24" xmlns="http://www.w3.org/2000/svg" xmlns:xlink="http://www.w3.org/1999/xlink"><linearGradient id="a" gradientUnits="userSpaceOnUse" x1="-19.355436" x2="-18.6299" y1="16.707636" y2="1.656788"><stop offset="0" stop-color="#0040dd"/><stop offset="1" stop-color="#0a84ff"/></linearGradient><linearGradient id="b" gradientTransform="matrix(.26458333 0 0 .26458333 101.6 307.58333)" gradientUnits="userSpaceOnUse" x1="18.5" x2="18.5" y1="23" y2="14.5"><stop offset="0" stop-color="#d70015"/><stop offset="1" stop-color="#ff453a"/></linearGradient><linearGradient id="c" gradientUnits="userSpaceOnUse" x1="3.366274" x2="3.346089" xlink:href="#b" y1="21.866274" y2="19.277544"/><linearGradient id="d" gradientUnits="userSpaceOnUse" x1="19.510092" x2="19.489908" xlink:href="#b" y1="21.794365" y2="19.133726"/><linearGradient id="e" gradientUnits="userSpaceOnUse" x1="19.582001" x2="20" xlink:href="#b" y1="6.082002" y2="4"/><linearGradient id="f" gradientUnits="userSpaceOnUse" x1="2.646447" x2="20.353554" xlink:href="#a" y1="12.5" y2="12.5"/><linearGradient id="g" gradientUnits="userSpaceOnUse" x1="19.5" x2="19.5" xlink:href="#a" y1="17" y2="9"/><linearGradient id="h" gradientUnits="userSpaceOnUse" x1="4" x2="19" xlink:href="#a" y1="20.5" y2="20.5"/><path d="m3 21 15.5-15.5" fill="none" opacity=".5" stroke="url(#f)"/><path d="m19.5 9c-.277 0-.5.223-.5.5v3.5h-2.5a.50055335.50055335 0 0 0 -.353516.855469l3.009766 2.992187a.50055335.50055335 0 0 0 .707031-.001953l2.990235-2.992187a.50055335.50055335 0 0 0 -.353516-.853516h-2.5v-3.5c0-.277-.223-.5-.5-.5z" fill="url(#g)"/><g fill="#808080"><path d="m18 2v4h4v-4zm1 1h2v2h-2z" fill="url(#e)" opacity=".5"/><path d="m4 20h15v1h-15z" fill="url(#h)"/><path d="m2 19h3v3h-3z" fill="url(#c)"/><path d="m18 19h3v3h-3z" fill="url(#d)"/></g></svg>

<?xml version="1.0" encoding="UTF-8" standalone="no"?>
<svg
   xmlns:dc="http://purl.org/dc/elements/1.1/"
   xmlns:cc="http://creativecommons.org/ns#"
   xmlns:rdf="http://www.w3.org/1999/02/22-rdf-syntax-ns#"
   xmlns:svg="http://www.w3.org/2000/svg"
   xmlns="http://www.w3.org/2000/svg"
   xmlns:xlink="http://www.w3.org/1999/xlink"
   xmlns:sodipodi="http://sodipodi.sourceforge.net/DTD/sodipodi-0.dtd"
   xmlns:inkscape="http://www.inkscape.org/namespaces/inkscape"
   viewBox="0 0 24 24"
   version="1.1"
   id="svg32"
   sodipodi:docname="lc_beziermove.svg"
   inkscape:version="0.92.3 (2405546, 2018-03-11)"
   inkscape:export-filename="/home/rizmut/Dokumen/Rizmut/Github/libreoffice-style-sukapura/images_sukapura/cmd/lc_beziermove.png"
   inkscape:export-xdpi="96"
   inkscape:export-ydpi="96">
  <metadata
     id="metadata38">
    <rdf:RDF>
      <cc:Work
         rdf:about="">
        <dc:format>image/svg+xml</dc:format>
        <dc:type
           rdf:resource="http://purl.org/dc/dcmitype/StillImage" />
      </cc:Work>
    </rdf:RDF>
  </metadata>
  <defs
     id="defs36" />
  <sodipodi:namedview
     pagecolor="#ffffff"
     bordercolor="#666666"
     borderopacity="1"
     objecttolerance="10"
     gridtolerance="10"
     guidetolerance="10"
     inkscape:pageopacity="0"
     inkscape:pageshadow="2"
     inkscape:window-width="1366"
     inkscape:window-height="714"
     id="namedview34"
     showgrid="true"
     inkscape:zoom="13.906433"
     inkscape:cx="18.396711"
     inkscape:cy="10.630491"
     inkscape:window-x="0"
     inkscape:window-y="28"
     inkscape:window-maximized="1"
     inkscape:current-layer="svg32">
    <inkscape:grid
       type="xygrid"
       id="grid845" />
  </sodipodi:namedview>
  <linearGradient
     id="a"
     gradientUnits="userSpaceOnUse"
     x1="-19.355436"
     x2="-18.6299"
     y1="16.707636"
     y2="1.656788">
    <stop
       offset="0"
       stop-color="#0040dd"
       id="stop2" />
    <stop
       offset="1"
       stop-color="#0a84ff"
       id="stop4" />
  </linearGradient>
  <linearGradient
     id="b"
     gradientTransform="matrix(.26458333 0 0 .26458333 101.6 307.58333)"
     gradientUnits="userSpaceOnUse"
     x1="18.5"
     x2="18.5"
     y1="23"
     y2="14.5">
    <stop
       offset="0"
       stop-color="#d70015"
       id="stop7" />
    <stop
       offset="1"
       stop-color="#ff453a"
       id="stop9" />
  </linearGradient>
  <linearGradient
     id="c"
     gradientUnits="userSpaceOnUse"
     x1="3.366274"
     x2="3.346089"
     xlink:href="#b"
     y1="21.866274"
     y2="19.277544" />
  <linearGradient
     id="d"
     gradientUnits="userSpaceOnUse"
     x1="19.510092"
     x2="19.489908"
     xlink:href="#b"
     y1="21.794365"
     y2="19.133726" />
  <linearGradient
     id="e"
     gradientUnits="userSpaceOnUse"
     x1="19.582001"
     x2="20"
     xlink:href="#b"
     y1="6.082002"
     y2="4" />
  <linearGradient
     id="f"
     gradientUnits="userSpaceOnUse"
     x1="2.646447"
     x2="20.353554"
     xlink:href="#a"
     y1="12.5"
     y2="12.5" />
  <linearGradient
     id="g"
     gradientUnits="userSpaceOnUse"
     x1="19.5"
     x2="19.5"
     xlink:href="#a"
     y1="17"
     y2="9" />
  <linearGradient
     id="h"
     gradientUnits="userSpaceOnUse"
     x1="4"
     x2="19"
     xlink:href="#a"
     y1="20.5"
     y2="20.5" />
  <path
     d="M 3,21 18.5,5.5"
     id="path18"
     inkscape:connector-curvature="0"
     style="opacity:0.5;fill:none;stroke:url(#f)"
     sodipodi:nodetypes="cc" />
  <path
     d="m19.5 9c-.277 0-.5.223-.5.5v3.5h-2.5a.50055335.50055335 0 0 0 -.353516.855469l3.009766 2.992187a.50055335.50055335 0 0 0 .707031-.001953l2.990235-2.992187a.50055335.50055335 0 0 0 -.353516-.853516h-2.5v-3.5c0-.277-.223-.5-.5-.5z"
     fill="url(#g)"
     id="path20" />
  <g
     fill="#808080"
     id="g30">
    <path
       style="opacity:0.5;fill:url(#e)"
       d="M 18 2 L 18 6 L 22 6 L 22 2 L 18 2 z M 19 3 L 21 3 L 21 5 L 19 5 L 19 3 z "
       id="path22" />
    <path
       d="m4 20h15v1h-15z"
       fill="url(#h)"
       id="path24" />
    <path
       d="m2 19h3v3h-3z"
       fill="url(#c)"
       id="path26" />
    <path
       d="m18 19h3v3h-3z"
       fill="url(#d)"
       id="path28" />
  </g>
</svg>
